internal/frontend/resources/checkmark.svg

<svg xmlns="http://www.w3.org/2000/svg" width="512" height="512"><path fill="#05BC29" d="m173.898 439.404-166.4-166.4c-9.997-9.997-9.997-26.206 0-36.204l36.203-36.204c9.997-9.998 26.207-9.998 36.204 0L192 312.69 432.095 72.596c9.997-9.997 26.207-9.997 36.204 0l36.203 36.204c9.997 9.997 9.997 26.206 0 36.204l-294.4 294.401c-9.998 9.997-26.207 9.997-36.204-.001Z"/></svg>

<?xml version="1.0" encoding="UTF-8"?>
<svg width="512px" height="512px" viewBox="0 0 512 512" xmlns="http://www.w3.org/2000/svg" xmlns:xlink="http://www.w3.org/1999/xlink" version="1.1">
 <path id="Path" d="M173.898 439.404 L7.498 273.004 C-2.499 263.007 -2.499 246.798 7.498 236.8 L43.701 200.596 C53.698 190.598 69.908 190.598 79.905 200.596 L192 312.69 432.095 72.596 C442.092 62.599 458.302 62.599 468.299 72.596 L504.502 108.8 C514.499 118.797 514.499 135.006 504.502 145.004 L210.102 439.405 C200.104 449.402 183.895 449.402 173.898 439.404 Z" fill-opacity="1" fill="#05BC29" stroke="none"/>
</svg>
